build/category/PlaneOutline.svg

<svg xmlns="http://www.w3.org/2000/svg" fill="none" viewBox="0 0 24 24" focusable="false"><path d="M0 0H24V24H0z"/><path fill="#74767B" fill-rule="evenodd" d="M12.5003 16.4711L11.436 17.4341C9.23654 19.4186 6.38266 19.7326 4.23569 17.7816C4.21796 17.7669 4.20078 17.7513 4.18421 17.7346L4.17829 17.7287C4.07771 17.6348 3.9798 17.5366 3.8848 17.4341L2.45164 15.9956C2.17294 15.7159 2.17378 15.2632 2.45352 14.9845C2.73325 14.7058 3.18595 14.7067 3.46464 14.9864L4.89181 16.4189L8.05652 13.5635L4.75084 9.928C3.90842 9.00154 3.9785 7.56707 4.90722 6.72714C5.59802 6.10239 6.60104 5.96469 7.43464 6.38016L12.9637 9.13589L17.2816 5.24004C18.453 4.18312 20.0993 4.06864 21.1562 5.24004C22.2131 6.41145 21.779 8.07898 20.6075 9.13589L16.9274 12.4656L18.4589 16.5271C18.7906 17.3974 18.5552 18.3821 17.8657 19.0083C16.9388 19.8502 15.5043 19.7792 14.665 18.85L12.5003 16.4711ZM6.85474 7.54366L13.1768 10.6946L18.1524 6.20523C18.9266 5.50678 19.729 5.59889 20.191 6.1109C20.4255 6.37084 20.4973 6.66504 20.4373 7.00476C20.3719 7.37487 20.1399 7.80686 19.7367 8.17069L10.5645 16.4695C9.64304 17.3007 8.64728 17.7262 7.73081 17.7865C7.08492 17.829 6.434 17.6944 5.81434 17.3374L9.89631 13.6544L5.71267 9.05342C5.35418 8.65917 5.384 8.04874 5.77921 7.69131C6.07318 7.42545 6.50001 7.36686 6.85474 7.54366ZM13.4643 15.5989L15.6296 17.9786C15.9868 18.374 16.5972 18.4042 16.9917 18.046C17.2851 17.7795 17.3853 17.3605 17.2441 16.9901L17.2425 16.9858L15.8919 13.4039L13.4643 15.5989Z"/></svg>

<svg xmlns="http://www.w3.org/2000/svg" fill="none" viewBox="0 0 24 24" focusable="false"><path fill="#74767B" fill-rule="evenodd" d="m12.5 16.47-1.07.96c-2.2 1.98-5.05 2.3-7.2.35l-.05-.05-.01-.01c-.1-.09-.2-.19-.29-.29l-1.43-1.44a.71.71 0 0 1 0-1.01c.28-.28.73-.28 1.01 0l1.43 1.43 3.16-2.85-3.3-3.64c-.85-.92-.78-2.36.15-3.2.69-.62 1.7-.76 2.53-.34l5.53 2.75 4.32-3.89c1.17-1.06 2.81-1.18 3.87 0 1.06 1.17.62 2.83-.55 3.89l-3.68 3.33 1.53 4.06c.34.87.1 1.86-.59 2.48-.93.85-2.36.77-3.2-.15zM6.85 7.54l6.32 3.15 4.98-4.49c.77-.7 1.57-.61 2.04-.09.23.26.3.55.24.89-.06.37-.29.8-.7 1.17l-9.17 8.29c-.92.84-1.92 1.26-2.83 1.32-.65.04-1.3-.09-1.92-.45l4.08-3.68-4.18-4.6a.963.963 0 0 1 1.14-1.51m6.61 8.05 2.16 2.38a.962.962 0 0 0 1.62-.98v-.01l-1.35-3.58z"/></svg>
